X:1
T:Jesu, Meine Freude
T:Jesu, Meine Freude
T:Johann Crüger, 1653
T:Public Domain Courtesy of the Cyber Hymnal™
C:Johann Crüger, 1653
Z:Public Domain
Z:Courtesy of the Cyber Hymnal™
%%score ( 1 2 ) ( 3 4 )
L:1/8
Q:1/4=110
M:none
K:Eb
V:1 treble 
V:2 treble 
V:3 bass 
V:4 bass 
V:1
 [EG]2 [DG]2 F2 [CE]2 | D4 C4 | G2 [C=A]2 [B,B]2 [B,G]2 | c4 [G=B]4 | ([Ec][Fd]) [Ge]2 [Gd]3 [Fd] | %5
 [Ec]8 | [EG]2 [DG]2 F2 [CE]2 | D4 C4 | G2 [C=A]2 [B,B]2 [B,G]2 | c4 [G=B]4 | %10
 ([Ec][Fd]) [Ge]2 [Gd]3 [Fd] | [Ec]8 | [EG]2 [EG]2 [FA]2 [EG]2 | F2 z F [B,E]4 | %14
 [EG]2 [E=A]2 [FB]2 G2 | [Gc]2 B=A A4 [DG]4 | [EG]2 [DG]2 [CF]2 [CE]2 D4 | [G,C]8 |] %18
V:2
 x4 (C=B,) x2 | (C2 =B,2) x4 | (ED) x6 | (EF G2) x4 | x8 | x8 | x4 (C=B,) x2 | (C2 =B,2) x4 | %8
 (ED) x6 | (EF G2) x4 | x8 | x8 | x8 | E2 D2 x4 | x6 (EF) | x2 G2 (G2 ^F2) x4 | x8 (C2 =B,2) | %17
 x8 |] %18
V:3
 [C,C]2 [B,,G,]2 (A,D,) E,2 | [F,,A,]2 (G,F,) [C,E,]4 | (CB,) ([F,=A,][E,G,]) [D,F,]2 [D,F,] x | %3
 G,2 E2 [G,D]4 | [A,C]2 C2 [G,C]2 [G,=B,]2 | [C,G,]8 | [C,C]2 [B,,G,]2 (A,D,) E,2 | %7
 ([F,,A,]2 G,F,) [C,E,]4 | (CB,) ([F,=A,][E,G,]) [D,F,]2 [D,F,] x | G,2 E2 [G,D]4 | %10
 [A,C]2 C2 [G,C]2 [G,=B,]2 | [C,G,]8 | C2 [E,B,]2 [D,B,]2 [E,B,]2 | [A,,C]2 (B,A,) [E,G,]4 | %14
 [F,B,]2 C2 [D,B,]2 B,2 | [C,E]2 [G,,D]2 [C,E]2 (DC) [G,,=B,]4 | %16
 [C,C]2 (DE) (FF,) [G,,G,]2 ([F,,A,]2 G,F,) | [C,=E,]8 |] %18
V:4
 x4 A,,3 x | x2 G,,2 x4 | C,2 E, x5 | (C,D, E,F,) x4 | x2 (G,F,) x4 | x8 | x4 A,,3 x | x2 G,,2 x4 | %8
 C,2 E, x5 | (C,D, E,F,) x4 | x2 (G,F,) x4 | x8 | (C,D,) x6 | x2 B,,2 x4 | x2 (D,C,) x (E,D,) x | %15
 x6 D,2 x4 | x2 B,,2 A,,2 x3 G,,2 x | x8 |] %18

